components/2.0/icon/icons/icon-pencil-22px.svg

<svg width="22" height="22" xmlns="http://www.w3.org/2000/svg"><g fill="#3D4752" fill-rule="evenodd"><path d="M16.5 8.5l2.7-2.7c.4-.4.4-1 0-1.4l-1.6-1.6c-.4-.4-1-.4-1.4 0l-2.7 2.7 3 3zM12.3 6.7L2 17v3h3L15.3 9.7l-3-3z"/></g></svg>

<?xml version="1.0" encoding="UTF-8" standalone="no"?>
<svg width="22px" height="22px" viewBox="0 0 22 22" version="1.1" xmlns="http://www.w3.org/2000/svg" xmlns:xlink="http://www.w3.org/1999/xlink" xmlns:sketch="http://www.bohemiancoding.com/sketch/ns">
    <!-- Generator: Sketch 3.4.4 (17249) - http://www.bohemiancoding.com/sketch -->
    <title>icon-pencil-22px</title>
    <desc>Created with Sketch.</desc>
    <defs></defs>
    <g id="22px" stroke="none" stroke-width="1" fill="none" fill-rule="evenodd" sketch:type="MSPage">
        <g id="icon-pencil-22px" sketch:type="MSArtboardGroup" fill="#3D4752">
            <path d="M16.5,8.5 L19.2,5.8 C19.6,5.4 19.6,4.8 19.2,4.4 L17.6,2.8 C17.2,2.4 16.6,2.4 16.2,2.8 L13.5,5.5 L16.5,8.5 L16.5,8.5 Z" id="Shape" sketch:type="MSShapeGroup"></path>
            <path d="M12.3,6.7 L2,17 L2,20 L5,20 L15.3,9.7 L12.3,6.7 Z" id="Shape" sketch:type="MSShapeGroup"></path>
        </g>
    </g>
</svg>
